src/layout/footer.svg

<svg width="5195" height="2392" fill="none" xmlns="http://www.w3.org/2000/svg"><path fill-rule="evenodd" clip-rule="evenodd" d="M1682 183.658l60-24.038c60-24.038 180-72.114 300-66.105 120 6.01 240 66.105 360 78.124 120 12.019 240-24.038 360-18.029 120 6.01 240 54.086 300 78.124l60 24.038V370H1682V183.658z" fill="#E61A6B"/><path d="M1372.5 97.5c-312-57-569-.5-837 283s-276 1005.5-535 2011h5194C4553 1869 4061 615 3872 380.5S3478.5 0 3012 0s-536.5 230-906.5 230-421-75.5-733-132.5z" fill="#1A1837"/></svg>

<svg width="5195" height="2392" viewBox="0 0 5195 2392" fill="none"
  xmlns="http://www.w3.org/2000/svg">
  <path fill-rule="evenodd" clip-rule="evenodd" d="M1682 183.658L1742 159.62C1802 135.582 1922 87.5056 2042 93.5151C2162 99.5246 2282 159.62 2402 171.639C2522 183.658 2642 147.601 2762 153.61C2882 159.62 3002 207.696 3062 231.734L3122 255.772V370H3062C3002 370 2882 370 2762 370C2642 370 2522 370 2402 370C2282 370 2162 370 2042 370C1922 370 1802 370 1742 370H1682V183.658Z" fill="#E61A6B"/>
  <path d="M1372.5 97.5C1060.5 40.5 803.5 97 535.5 380.5C267.5 664 259.5 1386 0.5 2391.5H5194.5C4553 1869 4061 615 3872 380.5C3683 146 3478.5 0 3012 0C2545.5 0 2475.5 230 2105.5 230C1735.5 230 1684.5 154.5 1372.5 97.5Z" fill="#1A1837"/>
</svg>
